!!!COM: Palestrina, Giovanni Perluigi da
!!!OPR: Missa De Beata Marie Virginis (I)
!!!OMD: Benedictus
!!!OTL: First Section
**kern	**kern	**kern	**kern
*Itenor	*Itenor	*Icalto	*Icant
!Tenor 2	!Tenor 1	!Altus	!Cantus
*clefGv2	*clefGv2	*clefG2	*clefG2
*k[]	*k[]	*k[]	*k[]
*G:mix	*G:mix	*G:mix	*G:mix
*M4/2	*M4/2	*M4/2	*M4/2
=1	=1	=1	=1
0r	0r	1.g	0r
.	.	2e	.
=2	=2	=2	=2
0r	0r	1f	1r
.	.	2e	2r
.	.	2f	[2dd
=3	=3	=3	=3
0r	0r	1g	2dd]
.	.	.	2b
.	.	1a	1cc
=4	=4	=4	=4
0r	0r	2g	2b
.	.	4f	2cc
.	.	4e	.
.	.	2f	1dd
.	.	2g	.
=5	=5	=5	=5
0r	0r	4c	1ee
.	.	4d	.
.	.	4e	.
.	.	4f	.
.	.	4g	1dd
.	.	4a	.
.	.	4b	.
.	.	4g	.
=6	=6	=6	=6
0r	1r	2a	2cc
.	.	1g	2b
.	[1d	.	1a
.	.	4f#	.
.	.	4e	.
=7	=7	=7	=7
1r	2d]	2f#	1dd
.	2B	2g	.
[1g	1c	1e	1ee
=8	=8	=8	=8
2g]	2B	1r	2dd
2e	2c	.	4cc
.	.	.	4b
1f	1d	2r	2a
.	.	2a	2dd
=9	=9	=9	=9
2e	2c	2cc	2ee
2f	2d	2.a	1dd
1g	1e	.	.
.	.	4g	.
.	.	[2g	2cc#
=10	=10	=10	=10
1a	1d	4g]	0dd
.	.	8f#	.
.	.	8e	.
.	.	2f#	.
2.g	2r	2g	.
.	[2g	[2b	.
4f	.	.	.
=11	=11	=11	=11
4e	2g]	2b]	0r
4d	.	.	.
2c	2e	2cc	.
1d	1f	[1a	.
=12	=12	=12	=12
2c#	2e	1a]	2r
2d	2f	.	1dd
2G	1g	1b	.
[2g	.	.	2b
=13	=13	=13	=13
2g]	1a	0r	1cc
2f#	.	.	.
2g	[1g	.	2b
[2c	.	.	2cc
=14	=14	=14	=14
2c]	1g]	2r	1dd
2B	.	1g	.
1c	1r	.	1ee
.	.	2e	.
=15	=15	=15	=15
1d	2r	1f	2.dd
.	2a	.	.
.	.	.	4a
2r	2g	2e	4cc
.	.	.	4b
[2a	4d	2f	[2dd
.	4f	.	.
=16	=16	=16	=16
4a]	1e	1g	2dd]
4g	.	.	.
1g	.	.	2cc#
.	1d	1a	1dd
2f#	.	.	.
=17	=17	=17	=17
0g	1r	2g	2r
.	.	2b	2dd
.	1c	[1cc	2.ee
.	.	.	4ff
=18	=18	=18	=18
0r	2.e	2cc]	1.gg
.	.	4b	.
.	4f	4a	.
.	[1g	[1b	.
.	.	.	2dd
=19	=19	=19	=19
0r	2g]	2b]	2ee
.	2d	2a	2ff
.	2e	1g	2.gg
.	[2g	.	.
.	.	.	4ff
=20	=20	=20	=20
0r	4g]	1r	4ee
.	4f	.	4dd
.	4f	.	1dd
.	8e	.	.
.	8d	.	.
.	2e	2r	.
.	2e	2g	2cc#
=21	=21	=21	=21
2r	2d	2a	1dd
2G	2g	2b	.
2.A	2e	[1cc	1r
.	2f	.	.
4B	.	.	.
=22	=22	=22	=22
1.c	[0e	2cc]	0r
.	.	2g	.
.	.	2a	.
2G	.	2b	.
=23	=23	=23	=23
2A	1e]	2.cc	2r
1c	.	.	2g
.	.	4b	.
.	2r	2a	2a
2B	2d	2g	2b
=24	=24	=24	=24
2A	2e	2a	2.cc
2A	2f	2a	.
.	.	.	8b
.	.	.	8a
2G	[1g	1d	2b
2B	.	.	2dd
=25	=25	=25	=25
2c	2g]	0r	2ee
2d	2d	.	2ff
4c	2.e	.	2.gg
4B	.	.	.
4c	.	.	.
4d	4f	.	4ff
=26	=26	=26	=26
2e	1g	2r	4ee
.	.	.	4dd
2c	.	2e	2.ee
2d	2f	2f	.
.	.	.	4dd
2B-	4e	2g	[2dd
.	4d	.	.
=27	=27	=27	=27
1A	2e	2.a	2dd]
.	2e	.	2cc#
.	.	4g	.
2r	1d	4f#	2.dd
.	.	4e	.
2d	.	2f#	.
.	.	.	4cc
=28	=28	=28	=28
2e	1r	2g	2b
2f	.	2d	2a
[1g	2r	1G	1b
.	2d	.	.
=29	=29	=29	=29
2g]	2e	0r	0r
2d	2f	.	.
2e	2g	.	.
2f	2d	.	.
=30	=30	=30	=30
2.g	4e	0r	2r
.	4f	.	.
.	1g	.	2dd
4f	.	.	.
2e	.	.	2ee
[2d	2f	.	2ff
=31	=31	=31	=31
4d]	1e	2r	1gg
4c	.	.	.
1c	.	2g	.
.	1d	2a	2r
2B	.	2b	2dd
=32	=32	=32	=32
1A	1c	1cc	2ee
.	.	.	2ff
1G	2d	1b	[1gg
.	4r	.	.
.	4d	.	.
=33	=33	=33	=33
2c	2e	1a	2gg]
2d	2f	.	2ff
1G	2.g	2.b-	2ee
.	.	.	2dd
.	4f	4b-	.
=34	=34	=34	=34
[0A	2e	[0a	2cc#
.	2d	.	2dd
.	2c#	.	2ee
.	2d	.	[2dd
=35	=35	=35	=35
1A]	1.e	0a]	2dd]
.	.	.	4cc#
.	.	.	4b
1A	.	.	2cc#
.	2e	.	2cc#
=36	=36	=36	=36
[0d	[0f#	[0a	[0dd
=37	=37	=37	=37
0d]	0f#]	0a]	0dd]
*-	*-	*-	*-
!!!CDT: 1525/^1526/-1594/2/2
!!!OCY: Italia
!!!AGN: Mass (Paraphrase)
!!!AST: renaissance, vocal
!!!ASW: Gregorian Mass
!!!PWK: Masses, Book Mantuan I
!!!RNB: Cadence finals: D
!!!YOR: Le Opere Complete, v. 18, p. 83
!!!YOO: Rome, Italy: Fratelli Scalera
!!!END: 1992//
!!!EED: John Miller
!!!YEC: Copyright 2000, John Miller
!!!YEN: United States of America
!!!YEM: Rights to all derivative electronic formats reserved.
!!!YEM: Refer to licensing agreement for further details.
!!!YEM: This file must be accompanied by the licensing agreement.
!!!YEM: A copy of the licensing agreement may be found at http://www.music-cog.ohio-state.edu/HumdrumDatabases/Palestrina/license.txt
!!!EMD: converted to Humdrum by Bret Aarden
